resources/svg/certificate.svg

<svg width="15" height="15" viewBox="0 0 15 15" fill="none" xmlns="http://www.w3.org/2000/svg">
<path fill-rule="evenodd" clip-rule="evenodd" d="M0 1.5C0 0.671573 0.671574 0 1.5 0H13.5C14.3284 0 15 0.671529 15 1.49992L15.0007 5.50118L14.2001 4.89975C13.448 4.33466 12.5138 4 11.5 4C9.01472 4 7 6.01472 7 8.5C7 9.51382 7.33466 10.448 7.89975 11.2001L8 11.3336V15H1.5C0.671573 15 0 14.3284 0 13.5V1.5ZM8 5H3V4H8V5ZM3 8H6V7H3V8Z" fill="black"/>
<path fill-rule="evenodd" clip-rule="evenodd" d="M11.5 5C9.567 5 8 6.567 8 8.5C8 9.45365 8.38141 10.3182 9 10.9495V14.5C9 14.6894 9.107 14.8625 9.27639 14.9472C9.44579 15.0319 9.64849 15.0136 9.8 14.9L11.5 13.625L13.2 14.9C13.3515 15.0136 13.5542 15.0319 13.7236 14.9472C13.893 14.8625 14 14.6894 14 14.5V10.9495C14.6186 10.3182 15 9.45365 15 8.5C15 6.567 13.433 5 11.5 5ZM10 13.5V11.6632C10.4546 11.8792 10.9632 12 11.5 12C12.0368 12 12.5454 11.8792 13 11.6632V13.5L11.8 12.6C11.6222 12.4667 11.3778 12.4667 11.2 12.6L10 13.5Z" fill="black"/>
</svg>

<svg viewBox="0 0 15 15" fill="none" xmlns="http://www.w3.org/2000/svg" fill="currentColor"><path fill-rule="evenodd" clip-rule="evenodd" d="M0 1.5A1.5 1.5 0 011.5 0h12A1.5 1.5 0 0115 1.5v4l-.8-.601a4.5 4.5 0 00-6.3 6.3l.1.134V15H1.5A1.5 1.5 0 010 13.5v-12zM8 5H3V4h5v1zM3 8h3V7H3v1z" fill="currentColor"/><path fill-rule="evenodd" clip-rule="evenodd" d="M11.5 5A3.5 3.5 0 009 10.95v3.55a.5.5 0 00.8.4l1.7-1.275 1.7 1.275a.5.5 0 00.8-.4v-3.55A3.5 3.5 0 0011.5 5zM10 13.5v-1.837c.455.216.963.337 1.5.337s1.045-.12 1.5-.337V13.5l-1.2-.9a.5.5 0 00-.6 0l-1.2.9z" fill="currentColor"/></svg>
